app/images/src/icons/pricegood.svg

<svg width="50" height="50" viewBox="0 0 50 50" fill="none" xmlns="http://www.w3.org/2000/svg">
<g clip-path="url(#clip0_235_46637)">
<rect width="50" height="50" fill="#FBE0E0"/>
<path d="M23.8075 13.6062C23.32 13.7843 23.2403 13.8593 18.2528 18.8468C12.5763 24.5327 13.0075 24.0359 13.0075 24.8796C13.0075 25.7234 12.6841 25.3343 17.1278 29.7874C20.2263 32.8952 21.07 33.7156 21.2809 33.8281C21.7731 34.0906 22.3731 34.0999 22.9075 33.8562C23.1513 33.7484 23.7044 33.2093 28.1763 28.7327C32.6153 24.289 33.1919 23.6984 33.3091 23.4499L33.445 23.1687L33.4591 19.0577C33.4684 14.989 33.4684 14.9468 33.37 14.689C33.1825 14.1827 32.7794 13.7937 32.2638 13.6249C32.0153 13.5406 31.7856 13.5359 27.9888 13.5406C24.8059 13.5406 23.9434 13.5546 23.8075 13.6062ZM29.0716 17.1921C29.5591 17.3749 29.9059 17.8671 29.9059 18.3874C29.9059 19.2546 29.0294 19.8827 28.2044 19.6015C27.9231 19.5077 27.6138 19.2312 27.4684 18.9452C27.3044 18.6218 27.3044 18.1531 27.4684 17.8296C27.7778 17.2249 28.4481 16.9577 29.0716 17.1921Z" fill="url(#paint0_linear_235_46637)"/>
<path d="M35.1935 19.5453L35.1794 23.825L35.0669 24.0828C34.9685 24.3125 34.3872 24.9078 29.9669 29.3375L24.9747 34.3343L25.2044 34.5312C25.6122 34.8921 26.0107 35.0281 26.545 34.9953C27.2482 34.9484 26.8825 35.2718 32.0482 30.1156C36.2669 25.9015 36.7122 25.4468 36.8294 25.189L36.9607 24.9031V20.7312V16.5593L36.8294 16.3015C36.5341 15.7203 36.0654 15.3921 35.4044 15.2984L35.2029 15.2703L35.1935 19.5453Z" fill="url(#paint1_linear_235_46637)"/>
</g>
<defs>
<linearGradient id="paint0_linear_235_46637" x1="13" y1="23.7858" x2="33.463" y2="23.7858" gradientUnits="userSpaceOnUse">
<stop stop-color="#E81212"/>
<stop offset="1" stop-color="#FCCD05"/>
</linearGradient>
<linearGradient id="paint1_linear_235_46637" x1="24.9747" y1="25.1351" x2="36.9607" y2="25.1351" gradientUnits="userSpaceOnUse">
<stop stop-color="#E81212"/>
<stop offset="1" stop-color="#FCCD05"/>
</linearGradient>
<clipPath id="clip0_235_46637">
<rect width="50" height="50" rx="25" fill="white"/>
</clipPath>
</defs>
</svg>

<svg width="50" height="50" fill="none" xmlns="http://www.w3.org/2000/svg"><g clip-path="url(#a)"><path fill="#FBE0E0" d="M0 0h50v50H0z"/><path d="M23.808 13.606c-.488.178-.568.253-5.555 5.24-5.677 5.687-5.245 5.19-5.245 6.034 0 .843-.324.454 4.12 4.907 3.098 3.108 3.942 3.929 4.153 4.041a1.835 1.835 0 0 0 1.627.028c.243-.108.796-.647 5.268-5.123 4.44-4.444 5.016-5.035 5.133-5.283l.136-.281.014-4.111c.01-4.069.01-4.111-.089-4.369a1.757 1.757 0 0 0-1.106-1.064c-.249-.084-.478-.09-4.275-.084-3.183 0-4.046.014-4.181.065Zm5.264 3.586c.487.183.834.675.834 1.195 0 .868-.877 1.496-1.702 1.215-.28-.094-.59-.37-.736-.657a1.326 1.326 0 0 1 0-1.115c.31-.605.98-.872 1.604-.638Z" fill="url(#b)"/><path d="m35.194 19.545-.015 4.28-.112.258c-.099.23-.68.825-5.1 5.255l-4.992 4.996.23.197c.407.361.806.497 1.34.464.703-.047.337.277 5.503-4.88 4.219-4.213 4.664-4.668 4.781-4.926l.132-.286V16.56l-.132-.258c-.295-.58-.764-.909-1.425-1.003l-.201-.028-.01 4.275Z" fill="url(#c)"/></g><defs><linearGradient id="b" x1="13" y1="23.786" x2="33.463" y2="23.786" gradientUnits="userSpaceOnUse"><stop stop-color="#E81212"/><stop offset="1" stop-color="#FCCD05"/></linearGradient><linearGradient id="c" x1="24.975" y1="25.135" x2="36.961" y2="25.135" gradientUnits="userSpaceOnUse"><stop stop-color="#E81212"/><stop offset="1" stop-color="#FCCD05"/></linearGradient><clipPath id="a"><rect width="50" height="50" rx="25" fill="#fff"/></clipPath></defs></svg>
